packages/foundations/assets/icons/functional/images/communication/speech_bubbles_16.svg

<svg width="16" height="16" viewBox="0 0 16 16" fill="none" xmlns="http://www.w3.org/2000/svg">
<g clip-path="url(#clip0_185_520)">
<path fill-rule="evenodd" clip-rule="evenodd" d="M1.59998 13.6V5.60001C1.59998 5.20393 1.91998 4.80001 2.39998 4.80001C2.87998 4.80001 3.19998 5.20001 3.19998 5.60001L3.20782 12.0898L4.15998 11.4654C4.40974 11.3093 4.6595 11.2 5.04974 11.2H10.4C10.8 11.2 11.2 11.52 11.2 12C11.2 12.48 10.8273 12.8078 10.4 12.8L5.04974 12.7922L2.84878 14.2751C2.7083 14.3376 2.55214 14.4 2.41166 14.4C2.00582 14.4 1.59998 14.1619 1.59998 13.6ZM12.7921 1.60001C13.6663 1.60001 14.4 2.33369 14.4 3.20785V10.4039C14.4 10.8722 13.9941 11.2 13.5883 11.2C13.4478 11.2 13.2917 11.1688 13.1512 11.0751L10.9502 9.59217H6.40782C5.53366 9.59217 4.79998 8.87417 4.79998 8.00001V3.20785C4.79998 2.33369 5.53366 1.60001 6.40782 1.60001H12.7921ZM12.7921 3.20785H6.40782V8.00001H10.9502C11.2781 8.00001 11.5746 8.09369 11.84 8.28097L12.7921 8.90537V3.20785Z" fill="#1A1C1F"/>
</g>
<defs>
<clipPath id="clip0_185_520">
<rect width="16" height="16" fill="white"/>
</clipPath>
</defs>
</svg>

<svg xmlns="http://www.w3.org/2000/svg" width="16" height="16" fill="none"><g clip-path="url(#a)"><path fill="#1A1C1F" fill-rule="evenodd" d="M1.6 13.6v-8c0-.396.32-.8.8-.8s.8.4.8.8l.008 6.49.952-.625c.25-.156.5-.265.89-.265h5.35c.4 0 .8.32.8.8a.78.78 0 0 1-.8.8l-5.35-.008-2.201 1.483c-.14.063-.297.125-.437.125-.406 0-.812-.238-.812-.8m11.192-12c.874 0 1.608.734 1.608 1.608v7.196c0 .468-.406.796-.812.796a.8.8 0 0 1-.437-.125l-2.2-1.483H6.407C5.534 9.592 4.8 8.874 4.8 8V3.208c0-.874.734-1.608 1.608-1.608zm0 1.608H6.408V8h4.542q.492 0 .89.281l.952.624z" clip-rule="evenodd"/></g><defs><clipPath id="a"><path fill="#fff" d="M0 0h16v16H0z"/></clipPath></defs></svg>
